assets/img/braze_icons/cursor-03.svg

<svg fill="none" height="24" viewBox="0 0 24 24" width="24" xmlns="http://www.w3.org/2000/svg"><path d="m5.04443 2.7304c-.24037-.09473-.47944-.18896-.67988-.24791-.18315-.05386-.55342-.15156-.95119-.01924-.44862.14923-.80063.50124-.94986.94986-.13232.39778-.03463.76804.01924.9512.05895.20044.15317.43951.24791.67988l5.32627 13.52051c.07492.1904.15415.3916.23561.5533.08263.164.24099.4448.54958.6377.36552.2285.81167.2886 1.22469.1652.3487-.1042.5758-.333.6989-.4692.1214-.1343.2511-.3073.3737-.4709l1.3483-1.7978 2.6683 3.6689c.081.1115.1751.241.2668.3466.1037.1194.2701.2883.5207.4014.3181.1435.6763.1716 1.0128.0794.2651-.0725.4559-.2135.577-.3153.1069-.0899.2201-.2031.3175-.3006l3.2128-3.2128c.0975-.0975.2107-.2106.3007-.3176.1018-.121.2427-.3118.3153-.5769.0921-.3366.064-.6948-.0795-1.0128-.113-.2506-.282-.4171-.4014-.5208-.1055-.0916-.235-.1857-.3466-.2668l-3.6688-2.6682 1.7976-1.3482c.1637-.1227.3367-.2524.471-.3738.1362-.1232.365-.3503.4692-.699.1235-.41296.0633-.85911-.1652-1.22463-.1929-.3086-.4737-.46695-.6377-.54958-.1617-.08147-.3629-.16068-.5532-.2356z" fill="#801ed7"/></svg>

<svg width="24" height="24" viewBox="0 0 24 24" fill="none" xmlns="http://www.w3.org/2000/svg">
<path d="M5.04443 2.7304C4.80406 2.63567 4.56499 2.54144 4.36455 2.48249C4.1814 2.42863 3.81113 2.33093 3.41336 2.46325C2.96474 2.61248 2.61273 2.96449 2.4635 3.41311C2.33118 3.81089 2.42887 4.18115 2.48274 4.36431C2.54169 4.56475 2.63591 4.80382 2.73065 5.04419L8.05692 18.5647C8.13184 18.7551 8.21107 18.9563 8.29253 19.118C8.37516 19.282 8.53352 19.5628 8.84211 19.7557C9.20763 19.9842 9.65378 20.0443 10.0668 19.9209C10.4155 19.8167 10.6426 19.5879 10.7657 19.4517C10.8871 19.3174 11.0168 19.1444 11.1394 18.9808L12.4877 17.183L15.156 20.8519C15.237 20.9634 15.3311 21.0929 15.4228 21.1985C15.5265 21.3179 15.6929 21.4868 15.9435 21.5999C16.2616 21.7434 16.6198 21.7715 16.9563 21.6793C17.2214 21.6068 17.4122 21.4658 17.5333 21.364C17.6402 21.2741 17.7534 21.1609 17.8508 21.0634L21.0636 17.8506C21.1611 17.7531 21.2743 17.64 21.3643 17.533C21.4661 17.412 21.607 17.2212 21.6796 16.9561C21.7717 16.6195 21.7436 16.2613 21.6001 15.9433C21.4871 15.6927 21.3181 15.5262 21.1987 15.4225C21.0932 15.3309 20.9637 15.2368 20.8521 15.1557L17.1833 12.4875L18.9809 11.1393C19.1446 11.0166 19.3176 10.8869 19.4519 10.7655C19.5881 10.6423 19.8169 10.4152 19.9211 10.0665C20.0446 9.65354 19.9844 9.20739 19.7559 8.84187C19.563 8.53327 19.2822 8.37492 19.1182 8.29229C18.9565 8.21082 18.7553 8.13161 18.565 8.05669L5.04443 2.7304Z" fill="#801ED7"/>
</svg>
